src/Pure-Dark/16/symbolic/mimetypes/text-calendar-symbolic.svg

<svg height="16" width="16" xmlns="http://www.w3.org/2000/svg"><path color="#bebebe" d="M5.5 1c-.277 0-.5.227-.5.5V2h1v-.5c0-.277-.223-.5-.5-.5zM6 2v.5a.5.5 0 1 1-1 0V2H3.5C2.669 2 2 2.669 2 3.5v9c0 .831.669 1.5 1.5 1.5h9c.831 0 1.5-.669 1.5-1.5v-9c0-.831-.669-1.5-1.5-1.5H11v.5a.5.5 0 1 1-1 0V2zm4 0h1v-.5a.5.5 0 1 0-1 0zM3.5 6h9c.277 0 .5.223.5.5v6c0 .277-.223.5-.5.5h-9a.499.499 0 0 1-.5-.5v-6c0-.277.223-.5.5-.5z" fill="#f2f2f2" overflow="visible" style="isolation:auto;mix-blend-mode:normal;marker:none"/></svg>

<?xml version="1.0" encoding="UTF-8" standalone="no"?>
<svg
   height="16"
   width="16"
   version="1.1"
   id="svg1"
   sodipodi:docname="text-calendar-symbolic.svg"
   inkscape:version="1.4.2 (ebf0e940d0, 2025-05-08)"
   xmlns:inkscape="http://www.inkscape.org/namespaces/inkscape"
   xmlns:sodipodi="http://sodipodi.sourceforge.net/DTD/sodipodi-0.dtd"
   xmlns="http://www.w3.org/2000/svg"
   xmlns:svg="http://www.w3.org/2000/svg">
  <defs
     id="defs1">
     <style
        id="current-color-scheme"
        type="text/css">
        .ColorScheme-Text { color:#f2f2f2; }
        .ColorScheme-NeutralText { color:#f67400; }
        .ColorScheme-PositiveText { color:#37c837; }
        .ColorScheme-NegativeText { color:#f44336; }
        .ColorScheme-Highlight { color:#3daee9; }
     </style>
  </defs>
  <sodipodi:namedview
     id="namedview1"
     pagecolor="#ffffff"
     bordercolor="#000000"
     borderopacity="0.25"
     inkscape:showpageshadow="2"
     inkscape:pageopacity="0.0"
     inkscape:pagecheckerboard="0"
     inkscape:deskcolor="#d1d1d1"
     inkscape:zoom="49.75"
     inkscape:cx="7.9899497"
     inkscape:cy="8"
     inkscape:window-width="1920"
     inkscape:window-height="1011"
     inkscape:window-x="0"
     inkscape:window-y="0"
     inkscape:window-maximized="1"
     inkscape:current-layer="svg1" />
  <path
     id="path1"
     style="fill:currentColor"
     class="ColorScheme-Text"
     d="M 5.5 1 C 5.223 1 5 1.227 5 1.5 L 5 2 L 6 2 L 6 1.5 C 6 1.223 5.777 1 5.5 1 z M 6 2 L 6 2.5 A 0.5 0.5 0 0 1 5 2.5 L 5 2 L 3.5 2 C 2.669 2 2 2.669 2 3.5 L 2 12.5 C 2 13.331 2.669 14 3.5 14 L 12.5 14 C 13.331 14 14 13.331 14 12.5 L 14 3.5 C 14 2.669 13.331 2 12.5 2 L 11 2 L 11 2.5 A 0.5 0.5 0 0 1 10 2.5 L 10 2 L 6 2 z M 10 2 L 11 2 L 11 1.5 A 0.5 0.5 0 0 0 10 1.5 L 10 2 z M 3.5 6 L 12.5 6 C 12.777 6 13 6.223 13 6.5 L 13 12.5 C 13 12.777 12.777 13 12.5 13 L 3.5 13 A 0.499 0.499 0 0 1 3 12.5 L 3 6.5 C 3 6.223 3.223 6 3.5 6 z " />
</svg>
